; generated by Slic3r 1.3.0 on 2020-10-28 at 00:37:37

; external perimeters extrusion width = 1.32mm (3.57mm^3/s)
; perimeters extrusion width = 1.68mm (9.31mm^3/s)
; infill extrusion width = 1.50mm (8.23mm^3/s)
; solid infill extrusion width = 1.68mm (18.61mm^3/s)
; top infill extrusion width = 1.68mm (13.96mm^3/s)

M107
M190 S60 ; set bed temperature and wait for it to be reached
M104 S195 ; set temperature
G28 ; home all axes
G1 Z5 F5000 ; lift nozzle

; Filament gcode

M109 S195 ; set temperature and wait for it to be reached
G21 ; set units to millimeters
G90 ; use absolute coordinates
M82 ; use absolute distances for extrusion
G92 E0
G1 Z0.800 F4800.000
G1 E-2.00000 F2400.00000
G92 E0
G1 X52.537 Y83.507 F4800.000
G1 E2.00000 F2400.00000
G1 F450
G1 X58.050 Y80.063 E3.05087
G1 X58.779 Y79.645 E3.18674
G1 X59.542 Y79.253 E3.32534
G1 X60.959 Y78.614 E3.57661
G1 X65.561 Y76.788 E4.37698
G1 X66.797 Y76.325 E4.59035
G1 X68.072 Y75.889 E4.80816
G1 X69.113 Y75.570 E4.98414
G1 X70.262 Y75.262 E5.17643
G1 X71.438 Y74.995 E5.37148
G1 X72.443 Y74.803 E5.53688
G1 X77.053 Y73.986 E6.29360
G1 X84.974 Y72.668 E7.59168
G1 X86.046 Y72.511 E7.76692
G1 X87.003 Y72.402 E7.92253
G1 X88.329 Y72.312 E8.13737
G1 X97.468 Y71.933 E9.61598
G1 X98.715 Y71.916 E9.81767
G1 X100.567 Y71.966 E10.11716
G1 X116.278 Y72.638 E12.65917
G1 X117.200 Y72.703 E12.80856
G1 X118.135 Y72.823 E12.96095
G1 X118.836 Y72.952 E13.07619
G1 X128.932 Y75.075 E14.74384
G1 X129.844 Y75.289 E14.89541
G1 X130.816 Y75.550 E15.05811
G1 X132.526 Y76.090 E15.34795
G1 X133.513 Y76.450 E15.51769
G1 X134.566 Y76.889 E15.70217
G1 X141.076 Y79.876 E16.86000
G1 X141.713 Y80.210 E16.97630
G1 X147.096 Y83.210 E17.97253
G1 X147.974 Y83.738 E18.13813
G1 X148.485 Y84.083 E18.23770
G1 X149.052 Y84.507 E18.35214
G1 X149.740 Y85.077 E18.49672
G1 X151.528 Y86.677 E18.88443
G1 X152.391 Y87.508 E19.07816
G1 X153.285 Y88.473 E19.29083
G1 X154.001 Y89.342 E19.47285
G1 X154.664 Y90.252 E19.65476
G1 X155.203 Y91.087 E19.81552
G1 X157.512 Y95.202 E20.57820
G1 X157.976 Y96.130 E20.74599
G1 X158.369 Y97.040 E20.90619
G1 X158.772 Y98.157 E21.09824
G1 X159.455 Y100.510 E21.49428
G1 X159.689 Y101.450 E21.65080
G1 X159.883 Y102.501 E21.82354
G1 X160.577 Y107.855 E22.69632
G1 X160.638 Y108.687 E22.83114
G1 X160.760 Y112.065 E23.37759
G1 X160.775 Y113.743 E23.64895
G1 X160.738 Y114.740 E23.81007
G1 X160.684 Y115.481 E23.93019
G1 X160.598 Y116.266 E24.05790
G1 X160.458 Y117.199 E24.21035
G1 X160.331 Y117.866 E24.32021
G1 X160.127 Y118.744 E24.46595
G1 X159.850 Y119.731 E24.63159
G1 X159.567 Y120.595 E24.77854
G1 X159.139 Y121.737 E24.97567
G1 X158.691 Y122.834 E25.16724
G1 X158.233 Y123.901 E25.35490
G1 X157.760 Y124.920 E25.53661
G1 X157.348 Y125.732 E25.68375
G1 X156.895 Y126.559 E25.83617
G1 X156.461 Y127.294 E25.97419
G1 X155.871 Y128.223 E26.15214
G1 X155.329 Y129.017 E26.30741
G1 X154.645 Y129.949 E26.49438
G1 X154.048 Y130.708 E26.65050
G1 X153.314 Y131.576 E26.83431
G1 X152.443 Y132.534 E27.04353
G1 X151.680 Y133.316 E27.22012
G1 X150.878 Y134.077 E27.39886
G1 X150.211 Y134.662 E27.54226
G1 X149.351 Y135.350 E27.72032
G1 X148.239 Y136.142 E27.94104
G1 X144.435 Y138.592 E28.67245
G1 X143.804 Y138.972 E28.79148
G1 X143.323 Y139.236 E28.88027
G1 X134.320 Y143.572 E30.49553
G1 X133.539 Y143.900 E30.63258
G1 X132.687 Y144.215 E30.77932
G1 X131.836 Y144.486 E30.92363
G1 X130.995 Y144.711 E31.06439
G1 X130.450 Y144.836 E31.15487
G1 X129.597 Y144.990 E31.29501
G1 X126.067 Y145.537 E31.87246
G1 X125.148 Y145.649 E32.02200
G1 X108.912 Y146.764 E34.65276
G1 X107.182 Y146.804 E34.93254
G1 X90.660 Y146.685 E37.60352
G1 X89.641 Y146.638 E37.76831
G1 X80.226 Y145.915 E39.29481
G1 X77.606 Y145.672 E39.72018
G1 X75.735 Y145.450 E40.02472
G1 X72.936 Y145.035 E40.48214
G1 X71.320 Y144.757 E40.74714
G1 X69.821 Y144.472 E40.99380
G1 X67.967 Y144.054 E41.30099
G1 X67.043 Y143.796 E41.45622
G1 X66.243 Y143.539 E41.59205
G1 X64.888 Y143.030 E41.82590
G1 X63.514 Y142.440 E42.06777
G1 X57.300 Y139.588 E43.17296
G1 X56.687 Y139.285 E43.28344
G1 X56.067 Y138.943 E43.39800
G1 X53.404 Y137.319 E43.90216
G1 X51.853 Y136.279 E44.20407
G1 X50.951 Y135.613 E44.38531
G1 X50.222 Y135.036 E44.53554
G1 X49.475 Y134.397 E44.69453
G1 X48.747 Y133.728 E44.85423
G1 X48.006 Y133.000 E45.02215
G1 X47.209 Y132.158 E45.20964
G1 X46.380 Y131.221 E45.41190
G1 X45.671 Y130.354 E45.59294
G1 X45.021 Y129.501 E45.76628
G1 X44.430 Y128.668 E45.93138
G1 X43.861 Y127.807 E46.09825
G1 X43.250 Y126.806 E46.28785
G1 X42.650 Y125.727 E46.48743
G1 X42.185 Y124.803 E46.65462
G1 X41.694 Y123.735 E46.84466
G1 X41.086 Y122.290 E47.09802
G1 X40.703 Y121.326 E47.26575
G1 X40.342 Y120.323 E47.43804
G1 X40.038 Y119.351 E47.60265
G1 X39.766 Y118.297 E47.77867
G1 X39.582 Y117.419 E47.92363
G1 X39.415 Y116.362 E48.09668
G1 X39.288 Y115.113 E48.29957
G1 X39.233 Y114.046 E48.47236
G1 X39.234 Y112.302 E48.75419
G1 X39.356 Y108.875 E49.30855
G1 X39.445 Y107.074 E49.59998
G1 X39.509 Y106.339 E49.71930
G1 X39.605 Y105.628 E49.83528
G1 X40.449 Y100.767 E50.63283
G1 X40.624 Y99.906 E50.77495
G1 X40.821 Y99.111 E50.90730
G1 X41.185 Y97.962 E51.10210
G1 X41.524 Y97.107 E51.25080
G1 X41.696 Y96.724 E51.31865
G1 X42.000 Y96.100 E51.43089
G1 X42.392 Y95.362 E51.56591
G1 X44.692 Y91.265 E52.32542
G1 X45.254 Y90.374 E52.49577
G1 X45.969 Y89.379 E52.69385
G1 X46.672 Y88.514 E52.87403
G1 X47.343 Y87.767 E53.03640
G1 X48.058 Y87.038 E53.20136
G1 X48.895 Y86.256 E53.38653
G1 X49.790 Y85.482 E53.57788
G1 X50.498 Y84.920 E53.72401
G1 X51.488 Y84.207 E53.92123
G1 X52.385 Y83.605 E54.09589
G1 X53.296 Y84.717 F4800.000
G1 F450
G1 X58.788 Y81.286 E55.14265
G1 X59.466 Y80.898 E55.26904
G1 X60.124 Y80.558 E55.38871
G1 X61.500 Y79.936 E55.63284
G1 X66.085 Y78.116 E56.43029
G1 X67.280 Y77.669 E56.63650
G1 X68.505 Y77.250 E56.84587
G1 X69.505 Y76.943 E57.01488
G1 X70.610 Y76.647 E57.19986
G1 X71.723 Y76.395 E57.38431
G1 X72.702 Y76.208 E57.54546
G1 X77.293 Y75.394 E58.29904
G1 X85.208 Y74.077 E59.59622
G1 X86.237 Y73.926 E59.76427
G1 X87.130 Y73.825 E59.90961
G1 X88.388 Y73.739 E60.11342
G1 X97.519 Y73.360 E61.59071
G1 X98.706 Y73.344 E61.78266
G1 X100.506 Y73.393 E62.07376
G1 X116.217 Y74.065 E64.61577
G1 X117.054 Y74.124 E64.75142
G1 X117.902 Y74.233 E64.88969
G1 X118.542 Y74.350 E64.99486
G1 X128.621 Y76.469 E66.65974
G1 X130.084 Y76.828 E66.90325
G1 X131.131 Y77.135 E67.07952
G1 X131.904 Y77.387 E67.21106
G1 X133.001 Y77.784 E67.39966
G1 X133.951 Y78.178 E67.56589
G1 X140.442 Y81.155 E68.72022
G1 X141.018 Y81.457 E68.82537
G1 X146.398 Y84.457 E69.82110
G1 X147.202 Y84.940 E69.97278
G1 X147.660 Y85.250 E70.06219
G1 X148.166 Y85.627 E70.16419
G1 X148.794 Y86.147 E70.29606
G1 X150.569 Y87.735 E70.68101
G1 X151.369 Y88.505 E70.86045
G1 X152.013 Y89.191 E71.01257
G1 X152.683 Y89.977 E71.17949
G1 X153.307 Y90.804 E71.34694
G1 X153.874 Y91.653 E71.51197
G1 X154.322 Y92.410 E71.65428
G1 X156.233 Y95.841 E72.28909
G1 X156.546 Y96.452 E72.40002
G1 X156.897 Y97.218 E72.53630
G1 X157.251 Y98.121 E72.69302
G1 X157.583 Y99.153 E72.86839
G1 X158.193 Y101.321 E73.23230
G1 X158.322 Y101.886 E73.32601
G1 X158.461 Y102.649 E73.45141
G1 X159.156 Y108.004 E74.32437
G1 X159.211 Y108.746 E74.44454
G1 X159.249 Y109.704 E74.59954
G1 X159.337 Y112.246 E75.01080
G1 X159.351 Y113.368 E75.19210
G1 X159.331 Y114.291 E75.34137
G1 X159.284 Y115.084 E75.46982
G1 X159.211 Y115.847 E75.59371
G1 X159.102 Y116.647 E75.72430
G1 X158.946 Y117.508 E75.86571
G1 X158.766 Y118.302 E75.99728
G1 X158.560 Y119.060 E76.12432
G1 X158.328 Y119.803 E76.25015
G1 X158.018 Y120.675 E76.39965
G1 X157.556 Y121.841 E76.60251
G1 X157.026 Y123.097 E76.82281
G1 X156.619 Y123.995 E76.98212
G1 X156.199 Y124.845 E77.13551
G1 X155.733 Y125.711 E77.29446
G1 X155.240 Y126.553 E77.45217
G1 X154.739 Y127.345 E77.60361
G1 X154.159 Y128.198 E77.77047
G1 X153.587 Y128.981 E77.92717
G1 X152.937 Y129.810 E78.09745
G1 X152.328 Y130.534 E78.25034
G1 X151.539 Y131.410 E78.44091
G1 X150.855 Y132.121 E78.60042
G1 X150.112 Y132.842 E78.76784
G1 X149.386 Y133.488 E78.92490
G1 X148.481 Y134.217 E79.11276
G1 X147.442 Y134.957 E79.31896
G1 X143.680 Y137.379 E80.04222
G1 X142.677 Y137.962 E80.22973
G1 X133.748 Y142.264 E81.83198
G1 X133.008 Y142.575 E81.96173
G1 X132.227 Y142.863 E82.09634
G1 X131.428 Y143.117 E82.23188
G1 X130.661 Y143.322 E82.36010
G1 X130.159 Y143.437 E82.44334
G1 X129.378 Y143.578 E82.57172
G1 X125.851 Y144.125 E83.14861
G1 X125.008 Y144.228 E83.28586
G1 X108.845 Y145.337 E85.90488
G1 X107.192 Y145.376 E86.17211
G1 X90.681 Y145.257 E88.84132
G1 X89.750 Y145.214 E88.99187
G1 X80.373 Y144.494 E90.51219
G1 X78.438 Y144.322 E90.82622
G1 X76.391 Y144.094 E91.15915
G1 X74.071 Y143.769 E91.53794
G1 X72.393 Y143.496 E91.81266
G1 X70.853 Y143.220 E92.06560
G1 X69.485 Y142.943 E92.29117
G1 X68.659 Y142.755 E92.42826
G1 X67.717 Y142.506 E92.58574
G1 X66.968 Y142.276 E92.71229
G1 X65.828 Y141.867 E92.90811
G1 X64.398 Y141.271 E93.15858
G1 X57.998 Y138.337 E94.29677
G1 X57.233 Y137.958 E94.43470
G1 X56.639 Y137.622 E94.54496
G1 X54.433 Y136.277 E94.96269
G1 X53.553 Y135.712 E95.13168
G1 X52.790 Y135.193 E95.28091
G1 X52.004 Y134.620 E95.43814
G1 X51.240 Y134.023 E95.59491
G1 X50.683 Y133.557 E95.71221
G1 X49.886 Y132.840 E95.88559
G1 X49.127 Y132.102 E96.05666
G1 X48.407 Y131.351 E96.22494
G1 X47.556 Y130.399 E96.43117
G1 X46.921 Y129.632 E96.59222
G1 X46.243 Y128.752 E96.77180
G1 X45.611 Y127.866 E96.94775
G1 X45.070 Y127.047 E97.10633
G1 X44.522 Y126.153 E97.27590
G1 X43.964 Y125.156 E97.46061
G1 X43.495 Y124.231 E97.62824
G1 X43.001 Y123.158 E97.81913
G1 X42.405 Y121.744 E98.06728
G1 X42.038 Y120.818 E98.22824
G1 X41.693 Y119.860 E98.39290
G1 X41.413 Y118.964 E98.54470
G1 X41.160 Y117.985 E98.70811
G1 X40.988 Y117.163 E98.84379
G1 X40.832 Y116.185 E99.00392
G1 X40.713 Y115.017 E99.19379
G1 X40.660 Y113.995 E99.35921
G1 X40.662 Y112.347 E99.62550
G1 X40.783 Y108.931 E100.17816
G1 X40.870 Y107.160 E100.46475
G1 X40.929 Y106.496 E100.57250
G1 X41.017 Y105.846 E100.67850
G1 X41.852 Y101.033 E101.46814
G1 X42.017 Y100.221 E101.60212
G1 X42.198 Y99.493 E101.72345
G1 X42.526 Y98.454 E101.89948
G1 X42.993 Y97.321 E102.09771
G1 X43.639 Y96.059 E102.32685
G1 X45.924 Y91.988 E103.08149
G1 X46.441 Y91.169 E103.23811
G1 X47.106 Y90.244 E103.42224
G1 X47.760 Y89.439 E103.58980
G1 X48.380 Y88.750 E103.73974
G1 X49.053 Y88.063 E103.89524
G1 X49.851 Y87.316 E104.07191
G1 X50.708 Y86.577 E104.25477
G1 X51.364 Y86.056 E104.39014
G1 X52.301 Y85.382 E104.57687
G1 X53.145 Y84.815 E104.74117
G1 X54.055 Y85.927 F4800.000
G1 F450
G1 X59.525 Y82.509 E105.78382
G1 X60.153 Y82.150 E105.90074
G1 X60.756 Y81.839 E106.01038
G1 X61.567 Y81.461 E106.15499
G1 X62.277 Y81.161 E106.27971
G1 X66.610 Y79.445 E107.03303
G1 X67.763 Y79.013 E107.23208
G1 X68.939 Y78.610 E107.43301
G1 X69.897 Y78.316 E107.59506
G1 X70.959 Y78.032 E107.77271
G1 X72.008 Y77.795 E107.94657
G1 X72.961 Y77.612 E108.10346
G1 X77.532 Y76.802 E108.85391
G1 X85.443 Y75.486 E110.15019
G1 X86.427 Y75.342 E110.31104
G1 X87.160 Y75.257 E110.43028
G1 X88.447 Y75.166 E110.63890
G1 X97.570 Y74.788 E112.11487
G1 X98.697 Y74.773 E112.29709
G1 X100.203 Y74.809 E112.54066
G1 X116.431 Y75.507 E115.16627
G1 X117.047 Y75.559 E115.26624
G1 X118.017 Y75.702 E115.42473
G1 X128.095 Y77.817 E117.08941
G1 X129.503 Y78.151 E117.32329
G1 X130.944 Y78.573 E117.56611
G1 X132.239 Y79.022 E117.78752
G1 X133.326 Y79.464 E117.97721
G1 X139.807 Y82.435 E119.12985
G1 X140.322 Y82.705 E119.22385
G1 X145.700 Y85.703 E120.21906
G1 X146.387 Y86.114 E120.34860
G1 X146.836 Y86.416 E120.43608
G1 X147.573 Y86.983 E120.58637
G1 X149.435 Y88.635 E120.98866
G1 X150.200 Y89.355 E121.15853
G1 X150.855 Y90.040 E121.31181
G1 X151.511 Y90.800 E121.47401
G1 X152.063 Y91.520 E121.62070
G1 X152.565 Y92.256 E121.76468
G1 X153.022 Y93.013 E121.90769
G1 X154.945 Y96.462 E122.54596
G1 X155.266 Y97.086 E122.65950
G1 X155.586 Y97.785 E122.78373
G1 X155.909 Y98.609 E122.92677
G1 X156.211 Y99.549 E123.08632
G1 X156.807 Y101.666 E123.44183
G1 X157.033 Y102.764 E123.62319
G1 X157.736 Y108.153 E124.50172
G1 X157.784 Y108.804 E124.60723
G1 X157.820 Y109.723 E124.75584
G1 X157.905 Y112.163 E125.15053
G1 X157.923 Y113.224 E125.32204
G1 X157.911 Y114.038 E125.45369
G1 X157.861 Y114.962 E125.60329
G1 X157.792 Y115.686 E125.72080
G1 X157.698 Y116.381 E125.83411
G1 X157.595 Y116.978 E125.93214
G1 X157.443 Y117.695 E126.05053
G1 X157.266 Y118.388 E126.16624
G1 X157.026 Y119.186 E126.30093
G1 X156.764 Y119.948 E126.43112
G1 X156.427 Y120.826 E126.58321
G1 X155.783 Y122.375 E126.85436
G1 X155.351 Y123.335 E127.02453
G1 X154.930 Y124.190 E127.17859
G1 X154.486 Y125.015 E127.33012
G1 X154.018 Y125.812 E127.47942
G1 X153.545 Y126.561 E127.62262
G1 X152.988 Y127.380 E127.78279
G1 X152.446 Y128.121 E127.93123
G1 X151.826 Y128.912 E128.09366
G1 X151.249 Y129.599 E128.23867
G1 X150.489 Y130.441 E128.42205
G1 X149.841 Y131.115 E128.57318
G1 X149.135 Y131.800 E128.73227
G1 X148.458 Y132.403 E128.87874
G1 X147.611 Y133.085 E129.05446
G1 X146.645 Y133.772 E129.24615
G1 X142.925 Y136.166 E129.96125
G1 X142.014 Y136.697 E130.13180
G1 X133.175 Y140.956 E131.71774
G1 X132.477 Y141.249 E131.84020
G1 X131.766 Y141.511 E131.96266
G1 X131.019 Y141.748 E132.08943
G1 X130.327 Y141.934 E132.20511
G1 X129.869 Y142.039 E132.28111
G1 X129.159 Y142.167 E132.39774
G1 X125.636 Y142.713 E132.97407
G1 X124.869 Y142.806 E133.09902
G1 X108.777 Y143.910 E135.70631
G1 X107.202 Y143.948 E135.96099
G1 X90.702 Y143.829 E138.62841
G1 X89.860 Y143.790 E138.76473
G1 X80.487 Y143.070 E140.28420
G1 X78.583 Y142.901 E140.59331
G1 X76.626 Y142.684 E140.91150
G1 X74.294 Y142.359 E141.29227
G1 X71.192 Y141.830 E141.80086
G1 X69.179 Y141.411 E142.13327
G1 X68.473 Y141.233 E142.25090
G1 X67.568 Y140.969 E142.40340
G1 X66.440 Y140.572 E142.59657
G1 X64.984 Y139.969 E142.85149
G1 X58.599 Y137.041 E143.98687
G1 X57.901 Y136.696 E144.11276
G1 X57.372 Y136.395 E144.21116
G1 X55.188 Y135.065 E144.62456
G1 X53.692 Y134.080 E144.91409
G1 X52.978 Y133.565 E145.05627
G1 X52.283 Y133.029 E145.19820
G1 X51.711 Y132.557 E145.31814
G1 X51.027 Y131.951 E145.46584
G1 X50.206 Y131.160 E145.65014
G1 X49.609 Y130.544 E145.78878
G1 X48.918 Y129.788 E145.95436
G1 X48.282 Y129.042 E146.11281
G1 X47.615 Y128.201 E146.28638
G1 X47.032 Y127.407 E146.44562
G1 X46.432 Y126.523 E146.61828
G1 X45.928 Y125.723 E146.77117
G1 X45.389 Y124.788 E146.94563
G1 X44.975 Y124.002 E147.08921
G1 X44.593 Y123.216 E147.23051
G1 X44.093 Y122.082 E147.43078
G1 X43.464 Y120.548 E147.69878
G1 X43.180 Y119.788 E147.82998
G1 X42.861 Y118.822 E147.99445
G1 X42.639 Y118.025 E148.12814
G1 X42.400 Y116.946 E148.30686
G1 X42.250 Y116.008 E148.46036
G1 X42.138 Y114.920 E148.63720
G1 X42.088 Y113.944 E148.79525
G1 X42.090 Y112.393 E149.04601
G1 X42.210 Y108.986 E149.59698
G1 X42.296 Y107.245 E149.87873
G1 X42.349 Y106.653 E149.97490
G1 X42.429 Y106.064 E150.07091
G1 X43.222 Y101.473 E150.82413
G1 X43.485 Y100.216 E151.03174
G1 X43.610 Y99.742 E151.11090
G1 X43.866 Y98.946 E151.24606
G1 X44.291 Y97.917 E151.42602
G1 X44.886 Y96.755 E151.63707
G1 X47.156 Y92.710 E152.38685
G1 X47.628 Y91.963 E152.52973
G1 X48.243 Y91.109 E152.69990
G1 X48.848 Y90.365 E152.85485
G1 X49.416 Y89.732 E152.99237
G1 X50.048 Y89.087 E153.13839
G1 X50.808 Y88.377 E153.30658
G1 X51.625 Y87.672 E153.48094
G1 X52.229 Y87.193 E153.60555
G1 X53.114 Y86.556 E153.78178
G1 X53.904 Y86.024 E153.93574
G1 X54.815 Y87.137 F4800.000
G1 F450
G1 X60.263 Y83.732 E154.97427
G1 X60.840 Y83.402 E155.08171
G1 X61.388 Y83.120 E155.18133
G1 X62.140 Y82.769 E155.31557
G1 X62.819 Y82.483 E155.43462
G1 X67.135 Y80.773 E156.18502
G1 X68.246 Y80.357 E156.37692
G1 X69.373 Y79.971 E156.56940
G1 X70.290 Y79.690 E156.72448
G1 X71.308 Y79.417 E156.89482
G1 X72.293 Y79.194 E157.05808
G1 X73.220 Y79.017 E157.21072
G1 X77.772 Y78.210 E157.95804
G1 X85.677 Y76.895 E159.25342
G1 X87.301 Y76.678 E159.51822
G1 X88.506 Y76.593 E159.71361
G1 X97.621 Y76.215 E161.18826
G1 X98.688 Y76.201 E161.36073
G1 X100.144 Y76.237 E161.59613
G1 X116.351 Y76.933 E164.21854
G1 X116.901 Y76.980 E164.30775
G1 X117.438 Y77.051 E164.39527
