; generated by Slic3r 1.3.0 on 2020-10-06 at 01:51:50

; external perimeters extrusion width = 0.40mm (2.14mm^3/s)
; perimeters extrusion width = 0.40mm (4.28mm^3/s)
; infill extrusion width = 0.40mm (5.71mm^3/s)
; solid infill extrusion width = 0.40mm (1.43mm^3/s)
; top infill extrusion width = 0.40mm (1.07mm^3/s)

M107
M190 S45 ; set bed temperature and wait for it to be reached
M104 S200 ; set temperature
G28 ; home all axes
G1 Z5 F5000 ; lift nozzle

; Filament gcode

M109 S200 ; set temperature and wait for it to be reached
G21 ; set units to millimeters
G90 ; use absolute coordinates
M82 ; use absolute distances for extrusion
G92 E0
G1 Z0.263 F7800.000
G1 E-1.00000 F2400.00000
G92 E0
G1 X37.686 Y32.686 F7800.000
G1 E1.00000 F2400.00000
G1 F1800
G1 X39.977 Y30.958 E1.10763
G1 X42.655 Y29.926 E1.21526
G1 X45.000 Y29.656 E1.30381
G1 X75.000 Y29.656 E2.42899
G1 X77.842 Y30.054 E2.53662
G1 X80.465 Y31.218 E2.64425
G1 X82.314 Y32.686 E2.73279
G1 X102.314 Y52.686 E3.79362
G1 X104.042 Y54.977 E3.90125
G1 X105.074 Y57.655 E4.00888
G1 X105.344 Y60.000 E4.09743
G1 X105.344 Y80.000 E4.84755
G1 X104.946 Y82.842 E4.95518
G1 X103.782 Y85.465 E5.06281
G1 X101.943 Y87.668 E5.17044
G1 X99.569 Y89.280 E5.27807
G1 X96.843 Y90.178 E5.38570
G1 X95.000 Y90.344 E5.45511
G1 X25.000 Y90.344 E8.08053
G1 X22.158 Y89.946 E8.18816
G1 X19.535 Y88.782 E8.29579
G1 X17.332 Y86.943 E8.40342
G1 X15.720 Y84.569 E8.51105
G1 X14.822 Y81.843 E8.61868
G1 X14.656 Y80.000 E8.68808
G1 X14.656 Y60.000 E9.43821
G1 X15.054 Y57.158 E9.54583
G1 X16.218 Y54.535 E9.65346
G1 X17.686 Y52.686 E9.74201
G1 X37.643 Y32.728 E10.80059
G1 X38.950 Y34.035 F7800.000
G1 F1800
G1 X41.481 Y31.504 E10.93528
G1 X78.519 Y31.504 E12.32914
G1 X83.496 Y36.481 E12.59401
G1 X83.496 Y51.398 E13.15538
G1 X83.602 Y51.504 E13.16102
G1 X98.519 Y51.504 E13.72239
G1 X103.496 Y56.481 E13.98726
G1 X103.496 Y83.519 E15.00479
G1 X98.519 Y88.496 E15.26966
G1 X21.481 Y88.496 E18.16882
G1 X16.504 Y83.519 E18.43369
G1 X16.504 Y56.481 E19.45121
G1 X21.481 Y51.504 E19.71608
G1 X36.398 Y51.504 E20.27745
G1 X36.504 Y51.398 E20.28309
G1 X36.504 Y36.481 E20.84447
G1 X38.908 Y34.077 E20.97239
G1 X39.151 Y34.321 F7800.000
G1 F1800
G1 X41.624 Y31.849 E21.10396
G1 X78.376 Y31.849 E22.48706
G1 X83.151 Y36.624 E22.74118
G1 X83.151 Y51.743 E23.31015
G1 X83.257 Y51.849 E23.31580
G1 X98.376 Y51.849 E23.88477
G1 X103.151 Y56.624 E24.13889
G1 X103.151 Y83.376 E25.14566
G1 X98.376 Y88.151 E25.39978
G1 X21.624 Y88.151 E28.28819
G1 X16.849 Y83.376 E28.54231
G1 X16.849 Y56.624 E29.54909
G1 X21.624 Y51.849 E29.80321
G1 X36.743 Y51.849 E30.37218
G1 X36.849 Y51.743 E30.37782
G1 X36.849 Y36.624 E30.94680
G1 X39.109 Y34.364 E31.06708
G1 X39.353 Y34.607 F7800.000
G1 F1800
G1 X41.767 Y32.194 E31.19554
G1 X78.233 Y32.194 E32.56789
G1 X82.806 Y36.767 E32.81126
G1 X82.806 Y52.088 E33.38784
G1 X82.912 Y52.194 E33.39348
G1 X98.233 Y52.194 E33.97005
G1 X102.806 Y56.767 E34.21342
G1 X102.806 Y83.233 E35.20945
G1 X98.233 Y87.806 E35.45282
G1 X21.767 Y87.806 E38.33047
G1 X17.194 Y83.233 E38.57384
G1 X17.194 Y56.767 E39.56987
G1 X21.767 Y52.194 E39.81324
G1 X37.088 Y52.194 E40.38981
G1 X37.194 Y52.088 E40.39546
G1 X37.194 Y36.767 E40.97203
G1 X39.310 Y34.650 E41.08468
G1 X39.554 Y34.894 F7800.000
G1 F1800
G1 X41.909 Y32.539 E41.21002
G1 X78.091 Y32.539 E42.57162
G1 X82.461 Y36.909 E42.80424
G1 X82.461 Y52.432 E43.38842
G1 X82.568 Y52.539 E43.39406
G1 X98.091 Y52.539 E43.97824
G1 X102.461 Y56.909 E44.21086
G1 X102.461 Y83.091 E45.19613
G1 X98.091 Y87.461 E45.42875
G1 X21.909 Y87.461 E48.29566
G1 X17.539 Y83.091 E48.52828
G1 X17.539 Y56.909 E49.51355
G1 X21.909 Y52.539 E49.74617
G1 X37.432 Y52.539 E50.33035
G1 X37.539 Y52.432 E50.33599
G1 X37.539 Y36.909 E50.92017
G1 X39.512 Y34.936 E51.02519
G1 X39.756 Y35.180 F7800.000
G1 F1800
G1 X42.052 Y32.883 E51.14741
G1 X77.948 Y32.883 E52.49826
G1 X82.117 Y37.052 E52.72013
G1 X82.117 Y52.777 E53.31191
G1 X82.223 Y52.883 E53.31755
G1 X97.948 Y52.883 E53.90933
G1 X102.117 Y57.052 E54.13120
G1 X102.117 Y82.948 E55.10572
G1 X97.948 Y87.117 E55.32759
G1 X22.052 Y87.117 E58.18375
G1 X17.883 Y82.948 E58.40562
G1 X17.883 Y57.052 E59.38014
G1 X22.052 Y52.883 E59.60201
G1 X37.777 Y52.883 E60.19379
G1 X37.883 Y52.777 E60.19943
G1 X37.883 Y37.052 E60.79121
G1 X39.713 Y35.222 E60.88859
G1 X39.957 Y35.466 F7800.000
G1 F1800
G1 X42.195 Y33.228 E61.00770
G1 X77.805 Y33.228 E62.34780
G1 X81.772 Y37.195 E62.55892
G1 X81.772 Y53.122 E63.15830
G1 X81.878 Y53.228 E63.16394
G1 X97.805 Y53.228 E63.76332
G1 X101.772 Y57.195 E63.97444
G1 X101.772 Y82.805 E64.93821
G1 X97.805 Y86.772 E65.14933
G1 X22.195 Y86.772 E67.99474
G1 X18.228 Y82.805 E68.20586
G1 X18.228 Y57.195 E69.16963
G1 X22.195 Y53.228 E69.38075
G1 X38.122 Y53.228 E69.98013
G1 X38.228 Y53.122 E69.98577
G1 X38.228 Y37.195 E70.58515
G1 X39.915 Y35.509 E70.67490
G1 X40.158 Y35.752 F7800.000
G1 F1800
G1 X42.338 Y33.573 E70.79089
G1 X77.662 Y33.573 E72.12024
G1 X81.427 Y37.338 E72.32061
G1 X81.427 Y53.467 E72.92759
G1 X81.533 Y53.573 E72.93324
G1 X97.662 Y53.573 E73.54022
G1 X101.427 Y57.338 E73.74059
G1 X101.427 Y82.662 E74.69361
G1 X97.662 Y86.427 E74.89398
G1 X22.338 Y86.427 E77.72863
G1 X18.573 Y82.662 E77.92900
G1 X18.573 Y57.338 E78.88202
G1 X22.338 Y53.573 E79.08239
G1 X38.467 Y53.573 E79.68937
G1 X38.573 Y53.467 E79.69502
G1 X38.573 Y37.338 E80.30200
G1 X40.116 Y35.795 E80.38412
G1 X40.360 Y36.039 F7800.000
G1 F1800
G1 X42.481 Y33.918 E80.49699
G1 X77.519 Y33.918 E81.81559
G1 X81.082 Y37.481 E82.00521
G1 X81.082 Y53.812 E82.61979
G1 X81.188 Y53.918 E82.62543
G1 X97.519 Y53.918 E83.24002
G1 X101.082 Y57.481 E83.42964
G1 X101.082 Y82.519 E84.37191
G1 X97.519 Y86.082 E84.56153
G1 X22.481 Y86.082 E87.38543
G1 X18.918 Y82.519 E87.57505
G1 X18.918 Y57.481 E88.51732
G1 X22.481 Y53.918 E88.70694
G1 X38.812 Y53.918 E89.32152
G1 X38.918 Y53.812 E89.32717
G1 X38.918 Y37.481 E89.94175
G1 X40.317 Y36.081 E90.01624
G1 X40.561 Y36.325 F7800.000
G1 F1800
G1 X42.624 Y34.263 E90.12599
G1 X77.376 Y34.263 E91.43384
G1 X80.737 Y37.624 E91.61271
G1 X80.737 Y54.157 E92.23489
G1 X80.843 Y54.263 E92.24054
G1 X97.376 Y54.263 E92.86272
G1 X100.737 Y57.624 E93.04159
G1 X100.737 Y82.376 E93.97311
G1 X97.376 Y85.737 E94.15198
G1 X22.624 Y85.737 E96.96513
G1 X19.263 Y82.376 E97.14400
G1 X19.263 Y57.624 E98.07552
G1 X22.624 Y54.263 E98.25439
G1 X39.157 Y54.263 E98.87657
G1 X39.263 Y54.157 E98.88222
G1 X39.263 Y37.624 E99.50440
G1 X40.519 Y36.367 E99.57126
G1 X40.763 Y36.611 F7800.000
G1 F1800
G1 X42.766 Y34.607 E99.67790
G1 X77.234 Y34.607 E100.97499
G1 X80.393 Y37.766 E101.14311
G1 X80.393 Y54.501 E101.77290
G1 X80.499 Y54.607 E101.77854
G1 X97.234 Y54.607 E102.40833
G1 X100.393 Y57.766 E102.57644
G1 X100.393 Y82.234 E103.49722
G1 X97.234 Y85.393 E103.66533
G1 X22.766 Y85.393 E106.46774
G1 X19.607 Y82.234 E106.63586
G1 X19.607 Y57.766 E107.55663
G1 X22.766 Y54.607 E107.72474
G1 X39.501 Y54.607 E108.35453
G1 X39.607 Y54.501 E108.36017
G1 X39.607 Y37.766 E108.98996
G1 X40.720 Y36.654 E109.04918
G1 X40.964 Y36.897 F7800.000
G1 F1800
G1 X42.909 Y34.952 E109.15270
G1 X77.091 Y34.952 E110.43905
G1 X80.048 Y37.909 E110.59642
G1 X80.048 Y54.846 E111.23380
G1 X80.154 Y54.952 E111.23945
G1 X97.091 Y54.952 E111.87684
G1 X100.048 Y57.909 E112.03420
G1 X100.048 Y82.091 E112.94422
G1 X97.091 Y85.048 E113.10159
G1 X22.909 Y85.048 E115.89325
G1 X19.952 Y82.091 E116.05061
G1 X19.952 Y57.909 E116.96063
G1 X22.909 Y54.952 E117.11800
G1 X39.846 Y54.952 E117.75539
G1 X39.952 Y54.846 E117.76103
G1 X39.952 Y37.909 E118.39842
G1 X40.922 Y36.940 E118.45001
G1 X41.165 Y37.184 F7800.000
G1 F1800
G1 X43.052 Y35.297 E118.55041
G1 X76.948 Y35.297 E119.82601
G1 X79.703 Y38.052 E119.97263
G1 X79.703 Y55.191 E120.61762
G1 X79.809 Y55.297 E120.62326
G1 X96.948 Y55.297 E121.26825
G1 X99.703 Y58.052 E121.41487
G1 X99.703 Y81.948 E122.31414
G1 X96.948 Y84.703 E122.46075
G1 X23.052 Y84.703 E125.24166
G1 X20.297 Y81.948 E125.38828
G1 X20.297 Y58.052 E126.28755
G1 X23.052 Y55.297 E126.43416
G1 X40.191 Y55.297 E127.07915
G1 X40.297 Y55.191 E127.08480
G1 X40.297 Y38.052 E127.72979
G1 X41.123 Y37.226 E127.77374
G1 X41.367 Y37.470 F7800.000
G1 F1800
G1 X43.195 Y35.642 E127.87103
G1 X50.805 Y35.642 E128.15742
G1 X50.925 Y35.762 E128.16380
G1 X51.075 Y35.762 E128.16945
G1 X51.195 Y35.642 E128.17582
G1 X68.805 Y35.642 E128.83855
G1 X68.925 Y35.762 E128.84493
G1 X69.075 Y35.762 E128.85057
G1 X69.195 Y35.642 E128.85695
G1 X76.805 Y35.642 E129.14335
G1 X79.358 Y38.195 E129.27921
G1 X79.358 Y55.536 E129.93180
G1 X79.464 Y55.642 E129.93745
G1 X96.805 Y55.642 E130.59004
G1 X99.358 Y58.195 E130.72591
G1 X99.358 Y81.805 E131.61443
G1 X96.805 Y84.358 E131.75029
G1 X23.195 Y84.358 E134.52045
G1 X20.642 Y81.805 E134.65631
G1 X20.642 Y58.195 E135.54483
G1 X23.195 Y55.642 E135.68070
G1 X40.536 Y55.642 E136.33329
G1 X40.642 Y55.536 E136.33893
G1 X40.642 Y38.195 E136.99153
G1 X41.324 Y37.512 E137.02785
G1 X41.568 Y37.756 F7800.000
G1 F1800
G1 X43.338 Y35.987 E137.12202
G1 X50.662 Y35.987 E137.39766
G1 X50.925 Y36.249 E137.41164
G1 X51.075 Y36.249 E137.41729
G1 X51.338 Y35.987 E137.43127
G1 X68.662 Y35.987 E138.08324
G1 X68.925 Y36.249 E138.09722
G1 X69.075 Y36.249 E138.10287
G1 X69.338 Y35.987 E138.11685
G1 X76.662 Y35.987 E138.39249
G1 X79.013 Y38.338 E138.51761
G1 X79.013 Y55.881 E139.17780
G1 X79.119 Y55.987 E139.18344
G1 X96.662 Y55.987 E139.84364
G1 X99.013 Y58.338 E139.96875
G1 X99.013 Y81.662 E140.84652
G1 X96.662 Y84.013 E140.97164
G1 X23.338 Y84.013 E143.73104
G1 X20.987 Y81.662 E143.85616
G1 X20.987 Y58.338 E144.73393
G1 X23.338 Y55.987 E144.85905
G1 X40.881 Y55.987 E145.51924
G1 X40.987 Y55.881 E145.52488
G1 X40.987 Y38.338 E146.18508
G1 X41.526 Y37.799 E146.21376
G1 X41.770 Y38.042 F7800.000
G1 F1800
G1 X43.480 Y36.332 E146.30482
G1 X50.519 Y36.332 E146.56971
G1 X50.925 Y36.737 E146.59129
G1 X51.075 Y36.737 E146.59694
G1 X51.480 Y36.332 E146.61852
G1 X68.519 Y36.332 E147.25974
G1 X68.925 Y36.737 E147.28133
G1 X69.075 Y36.737 E147.28697
G1 X69.480 Y36.332 E147.30855
G1 X76.519 Y36.332 E147.57345
G1 X78.668 Y38.480 E147.68781
G1 X78.668 Y56.226 E148.35561
G1 X78.774 Y56.332 E148.36125
G1 X96.519 Y56.332 E149.02905
G1 X98.668 Y58.480 E149.14341
G1 X98.668 Y81.519 E150.01043
G1 X96.519 Y83.668 E150.12480
G1 X23.480 Y83.668 E152.87345
G1 X21.332 Y81.519 E152.98782
G1 X21.332 Y58.480 E153.85484
G1 X23.480 Y56.332 E153.96920
G1 X41.226 Y56.332 E154.63700
G1 X41.332 Y56.226 E154.64264
G1 X41.332 Y38.480 E155.31043
G1 X41.727 Y38.085 E155.33149
G1 X41.971 Y38.329 F7800.000
G1 F1800
G1 X43.623 Y36.676 E155.41942
G1 X50.377 Y36.676 E155.67357
G1 X50.925 Y37.225 E155.70275
G1 X51.075 Y37.225 E155.70840
G1 X51.623 Y36.676 E155.73758
G1 X68.377 Y36.676 E156.36805
G1 X68.925 Y37.225 E156.39724
G1 X69.075 Y37.225 E156.40288
G1 X69.623 Y36.676 E156.43207
G1 X76.377 Y36.676 E156.68621
G1 X78.324 Y38.623 E156.78983
G1 X78.324 Y56.570 E157.46522
G1 X78.430 Y56.676 E157.47087
G1 X96.377 Y56.676 E158.14626
G1 X98.324 Y58.623 E158.24988
G1 X98.324 Y81.377 E159.10615
G1 X96.377 Y83.324 E159.20976
G1 X23.623 Y83.324 E161.94767
G1 X21.676 Y81.377 E162.05128
G1 X21.676 Y58.623 E162.90755
G1 X23.623 Y56.676 E163.01117
G1 X41.570 Y56.676 E163.68656
G1 X41.676 Y56.570 E163.69221
G1 X41.676 Y38.623 E164.36760
G1 X41.929 Y38.371 E164.38102
G1 X42.172 Y38.615 F7800.000
G1 F1800
G1 X43.766 Y37.021 E164.46584
G1 X50.234 Y37.021 E164.70924
G1 X50.925 Y37.712 E164.74602
G1 X51.075 Y37.712 E164.75167
G1 X51.766 Y37.021 E164.78845
G1 X68.234 Y37.021 E165.40817
G1 X68.925 Y37.712 E165.44496
G1 X69.075 Y37.712 E165.45060
G1 X69.766 Y37.021 E165.48739
G1 X76.234 Y37.021 E165.73078
G1 X77.979 Y38.766 E165.82365
G1 X77.979 Y56.915 E166.50665
G1 X78.085 Y57.021 E166.51229
G1 X96.234 Y57.021 E167.19529
G1 X97.979 Y58.766 E167.28815
G1 X97.979 Y81.234 E168.13367
G1 X96.234 Y82.979 E168.22654
G1 X23.766 Y82.979 E170.95369
G1 X22.021 Y81.234 E171.04656
G1 X22.021 Y58.766 E171.89208
G1 X23.766 Y57.021 E171.98494
G1 X41.915 Y57.021 E172.66794
G1 X42.021 Y56.915 E172.67358
G1 X42.021 Y38.766 E173.35658
G1 X42.130 Y38.657 E173.36237
G1 X42.374 Y38.901 F7800.000
G1 F1800
G1 X43.909 Y37.366 E173.44407
G1 X50.091 Y37.366 E173.67672
G1 X50.925 Y38.200 E173.72110
G1 X51.075 Y38.200 E173.72675
G1 X51.909 Y37.366 E173.77113
G1 X68.091 Y37.366 E174.38010
G1 X68.925 Y38.200 E174.42449
G1 X69.075 Y38.200 E174.43014
G1 X69.909 Y37.366 E174.47452
G1 X76.091 Y37.366 E174.70717
G1 X77.634 Y38.909 E174.78928
G1 X77.634 Y57.260 E175.47988
G1 X77.740 Y57.366 E175.48552
G1 X96.091 Y57.366 E176.17612
G1 X97.634 Y58.909 E176.25824
G1 X97.634 Y81.091 E177.09301
G1 X96.091 Y82.634 E177.17512
G1 X23.909 Y82.634 E179.89153
G1 X22.366 Y81.091 E179.97364
G1 X22.366 Y58.909 E180.80841
G1 X23.909 Y57.366 E180.89052
G1 X42.260 Y57.366 E181.58112
G1 X42.366 Y57.260 E181.58677
G1 X42.366 Y38.958 E182.27552
G1 X42.711 Y39.052 F7800.000
G1 F1800
G1 X44.052 Y37.711 E182.34689
G1 X49.948 Y37.711 E182.56878
G1 X50.925 Y38.688 E182.62077
G1 X51.075 Y38.688 E182.62641
G1 X52.052 Y37.711 E182.67840
G1 X67.948 Y37.711 E183.27662
G1 X68.925 Y38.688 E183.32861
G1 X69.075 Y38.688 E183.33426
G1 X70.052 Y37.711 E183.38624
G1 X75.948 Y37.711 E183.60814
G1 X77.289 Y39.052 E183.67950
G1 X77.289 Y57.605 E184.37771
G1 X77.395 Y57.711 E184.38335
G1 X95.948 Y57.711 E185.08155
G1 X97.289 Y59.052 E185.15291
G1 X97.289 Y80.948 E185.97693
G1 X95.948 Y82.289 E186.04830
G1 X24.052 Y82.289 E188.75395
G1 X22.711 Y80.948 E188.82531
G1 X22.711 Y59.052 E189.64933
G1 X24.052 Y57.711 E189.72070
G1 X42.605 Y57.711 E190.41890
G1 X42.711 Y57.605 E190.42454
G1 X42.711 Y39.112 E191.12048
G1 X43.056 Y39.195 F7800.000
G1 F1800
G1 X44.195 Y38.056 E191.18110
G1 X49.805 Y38.056 E191.39224
G1 X50.925 Y39.175 E191.45183
G1 X51.075 Y39.175 E191.45748
G1 X52.195 Y38.056 E191.51707
G1 X67.805 Y38.056 E192.10454
G1 X68.925 Y39.175 E192.16413
G1 X69.075 Y39.175 E192.16977
G1 X70.195 Y38.056 E192.22936
G1 X75.805 Y38.056 E192.44051
G1 X76.944 Y39.195 E192.50112
G1 X76.944 Y57.950 E193.20692
G1 X77.050 Y58.056 E193.21257
G1 X95.805 Y58.056 E193.91837
G1 X96.944 Y59.195 E193.97898
G1 X96.944 Y80.805 E194.79225
G1 X95.805 Y81.944 E194.85287
G1 X24.195 Y81.944 E197.54777
G1 X23.056 Y80.805 E197.60838
G1 X23.056 Y59.195 E198.42165
G1 X24.195 Y58.056 E198.48227
G1 X42.950 Y58.056 E199.18807
G1 X43.056 Y57.950 E199.19371
G1 X43.056 Y39.255 E199.89726
G1 X43.401 Y39.337 F7800.000
G1 F1800
G1 X44.337 Y38.401 E199.94712
G1 X49.663 Y38.401 E200.14752
G1 X50.599 Y39.337 E200.19738
G1 X50.599 Y53.295 E200.72262
G1 X50.705 Y53.401 E200.72826
G1 X51.295 Y53.401 E200.75043
G1 X51.401 Y53.295 E200.75607
G1 X51.401 Y39.337 E201.28131
G1 X52.337 Y38.401 E201.33118
G1 X67.663 Y38.401 E201.90790
G1 X68.599 Y39.337 E201.95776
G1 X68.599 Y53.295 E202.48300
G1 X68.705 Y53.401 E202.48865
G1 X69.295 Y53.401 E202.51082
G1 X69.401 Y53.295 E202.51646
G1 X69.401 Y39.337 E203.04170
G1 X70.337 Y38.401 E203.09156
G1 X75.663 Y38.401 E203.29196
G1 X76.599 Y39.337 E203.34182
G1 X76.599 Y58.295 E204.05523
G1 X76.705 Y58.401 E204.06087
G1 X95.663 Y58.401 E204.77427
G1 X96.599 Y59.337 E204.82414
G1 X96.599 Y80.663 E205.62666
G1 X95.663 Y81.599 E205.67652
G1 X24.337 Y81.599 E208.36067
G1 X23.401 Y80.663 E208.41054
G1 X23.401 Y59.337 E209.21305
G1 X24.337 Y58.401 E209.26292
G1 X43.295 Y58.401 E209.97632
G1 X43.401 Y58.295 E209.98197
G1 X43.401 Y39.397 E210.69311
G1 X43.745 Y39.480 F7800.000
G1 F1800
G1 X44.480 Y38.745 E210.73223
G1 X49.520 Y38.745 E210.92187
G1 X50.255 Y39.480 E210.96098
G1 X50.255 Y53.639 E211.49383
G1 X50.361 Y53.745 E211.49947
G1 X51.639 Y53.745 E211.54759
G1 X51.745 Y53.639 E211.55323
G1 X51.745 Y39.480 E212.08608
G1 X52.480 Y38.745 E212.12519
G1 X67.520 Y38.745 E212.69116
G1 X68.255 Y39.480 E212.73027
G1 X68.255 Y53.639 E213.26312
G1 X68.361 Y53.745 E213.26876
G1 X69.639 Y53.745 E213.31688
G1 X69.745 Y53.639 E213.32252
G1 X69.745 Y39.480 E213.85537
G1 X70.480 Y38.745 E213.89448
G1 X75.520 Y38.745 E214.08412
G1 X76.255 Y39.480 E214.12324
G1 X76.255 Y58.639 E214.84424
G1 X76.361 Y58.745 E214.84989
G1 X95.520 Y58.745 E215.57089
G1 X96.255 Y59.480 E215.61001
